svgs/sharp-light/circle-z.svg

<svg xmlns="http://www.w3.org/2000/svg" viewBox="0 0 512 512"><!--! Font Awesome Pro 6.6.0 by @fontawesome - https://fontawesome.com License - https://fontawesome.com/license (Commercial License) Copyright 2024 Fonticons, Inc. --><path d="M256 32a224 224 0 1 1 0 448 224 224 0 1 1 0-448zm0 480A256 256 0 1 0 256 0a256 256 0 1 0 0 512zm80-384l-160 0-16 0 0 32 16 0 128.9 0L163 358.7l-3 4.2 0 21.1 16 0 160 0 16 0 0-32-16 0-128.9 0L349 153.3l3-4.2 0-21.1-16 0z"/></svg>

<svg xmlns="http://www.w3.org/2000/svg" viewBox="0 0 512 512"><!--! Font Awesome Pro 6.4.2 by @fontawesome - https://fontawesome.com License - https://fontawesome.com/license (Commercial License) Copyright 2023 Fonticons, Inc. --><path d="M256 32a224 224 0 1 1 0 448 224 224 0 1 1 0-448zm0 480A256 256 0 1 0 256 0a256 256 0 1 0 0 512zm80-384H176 160v32h16H304.9L163 358.7l-3 4.2V384h16H336h16V352H336 207.1L349 153.3l3-4.2V128H336z"/></svg>
